client/public/logo.svg

<svg width="300" height="300" viewBox="0 0 300 300" fill="none" xmlns="http://www.w3.org/2000/svg">
<g clip-path="url(#clip0_2_2)">
<rect width="300" height="300" rx="33" fill="#2FD468"/>
<path d="M243.471 207.07C243.471 215.608 241.876 222.963 238.688 229.135C235.602 235.307 231.436 240.553 226.189 244.873C220.943 249.193 214.874 252.742 207.982 255.52C201.193 258.194 194.096 260.303 186.689 261.846C179.283 263.389 171.826 264.417 164.316 264.932C156.91 265.446 149.967 265.703 143.486 265.703C137.109 265.703 130.474 265.446 123.582 264.932C116.793 264.52 110.004 263.749 103.215 262.617C96.4258 261.486 89.7396 259.994 83.1562 258.143C76.5729 256.188 70.3496 253.771 64.4863 250.891L64.1777 52.1562C69.9382 49.7904 76.0586 47.6816 82.5391 45.8301C89.0195 43.8757 95.6029 42.2812 102.289 41.0469C109.078 39.7096 115.816 38.7324 122.502 38.1152C129.188 37.3952 135.669 37.0352 141.943 37.0352C149.247 37.0352 156.602 37.498 164.008 38.4238C171.517 39.3496 178.717 40.8926 185.609 43.0527C192.501 45.2129 198.93 48.0417 204.896 51.5391C210.863 54.9336 216.057 59.151 220.48 64.1914C225.007 69.2318 228.504 75.0951 230.973 81.7812C233.544 88.4674 234.83 96.1823 234.83 104.926C234.83 110.686 234.007 116.087 232.361 121.127C230.715 126.167 228.35 130.693 225.264 134.705C222.178 138.717 218.423 142.163 214 145.043C209.577 147.82 204.588 149.878 199.033 151.215C205.719 152.964 211.788 155.535 217.24 158.93C222.795 162.324 227.475 166.439 231.281 171.273C235.19 176.108 238.173 181.56 240.23 187.629C242.391 193.698 243.471 200.178 243.471 207.07ZM165.088 119.121C165.088 116.138 164.471 113.618 163.236 111.561C162.002 109.4 160.459 107.652 158.607 106.314C156.859 104.977 154.904 104 152.744 103.383C150.687 102.766 148.835 102.457 147.189 102.457C145.132 102.457 143.126 102.766 141.172 103.383C139.217 104 137.314 104.72 135.463 105.543L134.537 139.797C136.903 139.797 139.835 139.591 143.332 139.18C146.829 138.768 150.173 137.894 153.361 136.557C156.653 135.117 159.43 133.059 161.693 130.385C163.956 127.607 165.088 123.853 165.088 119.121ZM143.178 169.422C140.195 169.422 137.314 169.73 134.537 170.348L133.92 205.527C135.463 205.836 136.954 206.145 138.395 206.453C139.938 206.659 141.429 206.762 142.869 206.762C145.029 206.762 147.395 206.556 149.967 206.145C152.538 205.63 154.956 204.704 157.219 203.367C159.482 201.927 161.333 200.024 162.773 197.658C164.316 195.292 165.088 192.155 165.088 188.246C165.088 184.337 164.316 181.148 162.773 178.68C161.333 176.211 159.533 174.308 157.373 172.971C155.213 171.531 152.847 170.605 150.275 170.193C147.704 169.679 145.338 169.422 143.178 169.422Z" fill="white"/>
</g>
<defs>
<clipPath id="clip0_2_2">
<rect width="300" height="300" rx="33" fill="white"/>
</clipPath>
</defs>
</svg>

<svg xmlns="http://www.w3.org/2000/svg" fill="none" viewBox="0 0 300 300"><g clip-path="url(#a)"><rect fill="#2FD468" width="300" height="300" rx="33"/><path d="M243.471 207.07c0 8.538-1.595 15.893-4.783 22.065-3.086 6.172-7.252 11.418-12.499 15.738-5.246 4.32-11.315 7.869-18.207 10.647-6.789 2.674-13.886 4.783-21.293 6.326a164.855 164.855 0 0 1-22.373 3.086c-7.406.514-14.349.771-20.83.771-6.377 0-13.012-.257-19.904-.771a195.91 195.91 0 0 1-20.367-2.315 188.48 188.48 0 0 1-20.059-4.474c-6.583-1.955-12.806-4.372-18.67-7.252l-.308-198.735c5.76-2.366 11.88-4.474 18.361-6.326a184.088 184.088 0 0 1 19.75-4.783 199.377 199.377 0 0 1 20.213-2.932c6.686-.72 13.167-1.08 19.441-1.08 7.304 0 14.659.463 22.065 1.389 7.509.926 14.709 2.469 21.601 4.629 6.892 2.16 13.321 4.989 19.287 8.486 5.967 3.395 11.161 7.612 15.584 12.652 4.527 5.04 8.024 10.904 10.493 17.59 2.571 6.686 3.857 14.401 3.857 23.145 0 5.76-.823 11.161-2.469 16.201-1.646 5.04-4.011 9.566-7.097 13.578-3.086 4.012-6.841 7.458-11.264 10.338-4.423 2.777-9.412 4.835-14.967 6.172 6.686 1.749 12.755 4.32 18.207 7.715 5.555 3.394 10.235 7.509 14.041 12.343 3.909 4.835 6.892 10.287 8.949 16.356 2.161 6.069 3.241 12.549 3.241 19.441Zm-78.383-87.949c0-2.983-.617-5.503-1.852-7.56-1.234-2.161-2.777-3.909-4.629-5.247a17.447 17.447 0 0 0-5.863-2.931c-2.057-.617-3.909-.926-5.555-.926-2.057 0-4.063.309-6.017.926a54.164 54.164 0 0 0-5.709 2.16l-.926 34.254c2.366 0 5.298-.206 8.795-.617a36.993 36.993 0 0 0 10.029-2.623c3.292-1.44 6.069-3.498 8.332-6.172 2.263-2.778 3.395-6.532 3.395-11.264Zm-21.91 50.301a39.67 39.67 0 0 0-8.641.926l-.617 35.179c1.543.309 3.034.618 4.475.926 1.543.206 3.034.309 4.474.309 2.16 0 4.526-.206 7.098-.617a23.066 23.066 0 0 0 7.252-2.778c2.263-1.44 4.114-3.343 5.554-5.709 1.543-2.366 2.315-5.503 2.315-9.412 0-3.909-.772-7.098-2.315-9.566-1.44-2.469-3.24-4.372-5.4-5.709a17.695 17.695 0 0 0-7.098-2.778c-2.571-.514-4.937-.771-7.097-.771Z" fill="#fff"/></g><defs><clipPath id="a"><rect fill="#fff" width="300" height="300" rx="33"/></clipPath></defs></svg>
